X:1
T:Morning dew
C:Tradicional
O:Irlanda
R:Reel
Q:200
M:C
L:1/8
K:EDor
"Em"E2EB BAFD|EBEB "D"ADFD|"Em"E2EB BAFA|"Bm"BcdB "D"ADFA:|"Em"B2eB fBeB|"Bm"B2dB "D"ADFD|"Em"B2eB fBec|"Bm"dcdB "D"ADFA|"Em"B2eB fBeB|"Bm"B2dB "D"ADFA|
"Em"(3Bcdef "C"gfge|"Bm"dcdB "D"ADFA||"Em"B2GB FBEB|B2dB "D"ADFD|"Em"B2GB FBDB|"Bm"dcdB "D"ADFA|"Em"B2GB FBEB|B2dB "D"ADFA|"Em"BAGF "C"EFGA|"Bm"BcdB "D"ADFD|]
"Variación:"
"Em"E3B BAFA|"Em"EBEB "D"AGFD|"Em"E3B BAFA|1"G"BddB "D"AGFD:|2"G"BddB ADFA||"Em"B2eB fBeB-|B2dB "D"ADFA|"Em"B2eB fBeB|"G"dcdB "D"ADFA|
"Em"B2eB fBeB-|B2dB "D"ADFA|"G"(3Bcdeg "D"fdec|"Bm"dcdB ADFA|:"Em"BAGF EFGA|BEGB "D"ADFA|"Em"BAGF EFGA|1"G"BddB "D"ADFA:|2"G"BcdB "D"AGFD|]
"Variación:"
B2EB GBEB|1~B2EB GBEB|BcdB ADFA:|2BAGF EFGA|BcdB ADFA|:~E3B BAFD|~E3B ADFD|~E3B BAFA|BcdB ADFA:|
|:B2eB fBeB|~B2dB ADFA|1B2eB fBeB|dcdB ADFA:|2(3Bcdeg fdec|dcdB ADFA|]
"Variación:"
BEGF EFGA|BEGB ADFA|1BEGF EFGA|BAdB ADFA:|2BAGF EFGA|BAdB ADFD|:~E3B BAFD|EBGB ADFD|
~E3B BA(3FAc|1BAdA ADFD:|2BAdB ADFA||:B2eB fBeB|~B2dB ADFA|1Bdeg fdec|dcdB ADFA:|2(3Bcdeg fdec|dcdB ADFA|]

